chrome/urlbar/permissions/camera.svg

<svg xmlns="http://www.w3.org/2000/svg" width="16" height="16" viewBox="0 0 16 16">
   <path
   style="fill:context-fill;fill-opacity:context-fill-opacity"
   d="M 6.1191406 0 C 5.5520906 0 5.0339269 0.31951188 4.7792969 0.82617188 L 4.1894531 2 L 2.5 2 C 1.11929 2 0 3.11928 0 4.5 L 0 12.5 C 0 13.8807 1.11929 15 2.5 15 L 13.5 15 C 14.8808 15 16 13.8807 16 12.5 L 16 4.5 C 16 3.11929 14.8808 2 13.5 2 L 11.810547 2 L 11.224609 0.83007812 C 10.970509 0.32183812 10.451013 7.4014868e-17 9.8828125 0 L 6.1191406 0 z M 6.1191406 1 L 9.8828125 1 C 10.072212 1 10.245378 1.1079337 10.330078 1.2773438 L 11.054688 2.7226562 C 11.139387 2.8920763 11.3106 3 11.5 3 L 13.5 3 C 14.3285 3 15 3.67157 15 4.5 L 15 12.5 C 15 13.3284 14.3285 14 13.5 14 L 2.5 14 C 1.67157 14 1 13.3284 1 12.5 L 1 4.5 C 1 3.67157 1.67157 3 2.5 3 L 4.4980469 3 C 4.6870669 3 4.8604325 2.8934994 4.9453125 2.7246094 L 5.671875 1.2753906 C 5.756755 1.1065006 5.9301306 1 6.1191406 1 z M 7.9960938 4 C 5.7869538 4 3.9960938 5.79089 3.9960938 8 C 3.9960938 10.2092 5.7869538 12 7.9960938 12 C 10.205254 12 11.996094 10.2092 11.996094 8 C 11.996094 5.79089 10.205254 4 7.9960938 4 z M 7.9960938 5 C 9.6529537 5 10.996094 6.34318 10.996094 8 C 10.996094 9.6569 9.6529537 11 7.9960938 11 C 6.3392338 11 4.9960938 9.6569 4.9960938 8 C 4.9960938 6.34318 6.3392337 5 7.9960938 5 z " />
</svg>

<svg xmlns="http://www.w3.org/2000/svg" width="16" height="16">
  <path style="fill:context-fill;fill-opacity:context-fill-opacity" d="M6.12 0a1.5 1.5 0 0 0-1.34.826L4.19 2H2.5A2.5 2.5 0 0 0 0 4.5v8A2.5 2.5 0 0 0 2.5 15h11a2.5 2.5 0 0 0 2.5-2.5v-8A2.5 2.5 0 0 0 13.5 2h-1.69L11.226.83A1.5 1.5 0 0 0 9.883 0H6.119zm0 1h3.763a.5.5 0 0 1 .447.277l.725 1.446c.084.17.256.277.445.277h2A1.5 1.5 0 0 1 15 4.5v8a1.5 1.5 0 0 1-1.5 1.5h-11A1.5 1.5 0 0 1 1 12.5v-8A1.5 1.5 0 0 1 2.5 3h1.998a.5.5 0 0 0 .447-.275l.727-1.45A.5.5 0 0 1 6.119 1zm1.876 3a4 4 0 1 0 0 8 4 4 0 0 0 0-8zm0 1a3 3 0 1 1 0 6 3 3 0 0 1 0-6z"/>
</svg>
